X: 21
T:Bury Fair
M:4/4
L:1/8
K:F
d2|c2 A2 A2 F2|G4 C2 d2|c2 A2 A2 GF|F6 d2|c2 A2 A2 F2|G4 C2 d2|c2 A2 A2 GF|F6:|
|: f2|c2 f2 e2 f2|g2 G2 G2 f2|c2 f2 efge| f6 f2|c2 f2 e2 f2|g2 G2 G2 f2| c2 f2 efge| f6 f2:| c2|dcBA BAGF| GFED C2 c2|dcBA BAGF| F6 c2|dcBA BAGF|GFED C2 c2|dcBA BAGF F6:|
|: f2 c2 f2 e2 f2 | g2 G2 G2 f2| c2 f2 efge| f6 c2|dcBA BAGF| GFED C2 c2|dcBA BAGF| F6:|

